X:37
T:Little Black Pig, The
S:Micho Russell, as recorded on Limestone Rock, 1st time through
D:Track 16 of Micho Russell, Limestone Rock, 1993
Z: id:ng-jigs-37 transcribed by Alan Ng alan@alan-ng.nospam (net) 13 April 2014
M:6/8
K:DMix
|A2A DFA|ded dcA|GEE cEE|GEG cz2|AAA DFA|ded dcA|GEE cEE|DED D2c||\
AzA Dz2|ddd dcA|GEE cEE|GEG cz2|AcA DFA|ddd dcA|GEE c2E|DED dz2||\
ddd eee|ddd dcA|GEE cEE|GEG cz2|ddd edA|ddd dcA|GEE c2E|DED dz2||\
d2d e2e|ddd dcA|GEE c2E|GEG cz2|d2z edA|ded dcA|GEE cEE|DED dz2|]

